svg/icon/start.svg

<svg height="32" viewBox="0 0 32 32" width="32" xmlns="http://www.w3.org/2000/svg" xmlns:xlink="http://www.w3.org/1999/xlink"><defs><linearGradient id="a" x1="50%" x2="50%" y1="0%" y2="100%"><stop offset="0" stop-color="#fff" stop-opacity=".5"/><stop offset="1" stop-opacity=".5"/></linearGradient><circle id="b" cx="16" cy="15" r="15"/><filter id="c" height="111.7%" width="111.7%" x="-5.8%" y="-4.2%"><feOffset dy=".5" in="SourceAlpha" result="shadowOffsetOuter1"/><feGaussianBlur in="shadowOffsetOuter1" result="shadowBlurOuter1" stdDeviation=".5"/><feComposite in="shadowBlurOuter1" in2="SourceAlpha" operator="out" result="shadowBlurOuter1"/><feColorMatrix in="shadowBlurOuter1" values="0 0 0 0 0   0 0 0 0 0   0 0 0 0 0  0 0 0 0.199473505 0"/></filter><path id="d" d="m21.068724 17.8905721c-.0131106 2.0732933-1.2111108 3.838599-3.1215032 4.5645806-.4478967.1702882-.9137652.2944471-1.3780869.4109561-.2775325.0696146-.4285991.206396-.4505483.5104056-.027547.3810447-.0667315.7620129-.1202788 1.1400741-.0630487.4456869-.2159567.5471254-.6266576.4492824-.7056159-.1679932-.7819225-.2815187-.6873494-1.0226472.0081021-.0631887.0169407-.1262244.0241589-.1895661.0692358-.6077132-.0167197-.6946168-.5970483-.6656234-.2616229.0130814-.3707061.1416008-.3949386.3981806-.0347652.3676573-.0697514.7363856-.129854 1.1002179-.061281.3716352-.2163987.4636643-.5745098.3860172-.7637297-.1654688-.8209597-.2495419-.7196103-1.0583726.1257293-1.0030633.1227831-.9923533-.8031352-1.2710415-.4108482-.1236234-.8084384-.2959771-1.2090485-.4545609-.2440194-.0966955-.32415612-.2779997-.2581611-.5493439.0841877-.3456254.141786-.6980592.2143363-1.0468211.1237406-.5949377.411953-.7754003.9620093-.5589828.9732785.3829572 1.9738094.6186526 3.014556.6438209.9387342.0227204 1.8681143-.0389383 2.7249441-.5000016.5664814-.3048511.9824854-.752374 1.191003-1.392829.3099407-.952191.0316717-1.7223894-.8607335-2.1051936-.734415-.3150255-1.5234821-.4909747-2.2643051-.7922302-.6581084-.2675958-1.3424379-.5362625-1.9108343-.9567046-1.2762956-.9440055-1.4995443-2.3411184-1.2184764-3.8314844.3170116-1.68115614 1.3461206-2.77112302 2.8732855-3.34884831.4066498-.15376427.5915241-.36781027.5977112-.82497212.0067762-.49495267.0855135-.98959935.1453951-1.48271603.0460345-.37882622.193492-.48546672.547994-.42732699.7523869.12331742.8416568.24196836.7680754 1.02325919-.0286518.30446857-.0542838.60939613-.0896383.91302321-.0296093.2548203.0508221.37232375.3174535.38020321.6089067.01797742.635128.00696147.706868-.62286007.0461081-.4049891.0805051-.81158469.1350098-1.21527329.0603972-.4482114.2055714-.55064441.6177454-.46595931.6950095.14274833.7725683.24862383.7048056.97238693-.029683.31716751-.0457398.6373185-.1004655.94989603-.0631961.36123131.0471392.52746503.4050294.61046714.6813833.15804825 1.3546646.35840081 2.0241158.56609733.5029171.15598277.5227303.212975.4263894.73623254-.0575246.31303653-.114681.62668506-.1881151.93589661-.1381033.58147373-.4280835.75497493-.9825591.56839233-.9479411-.3190035-1.8997124-.60863114-2.9051781-.65116494-.8798839-.03725533-1.7479829-.02463289-2.511639.52823004-1.0755118.7786898-1.0819934 2.3603964.0617966 3.0259433.7286699.4240375 1.5690746.6404549 2.35851.952497.4809678.1901781.9748253.3535048 1.437232.5841512 1.2374057.6172756 1.8585392 1.6510153 1.8442501 3.0843125"/><filter id="e" height="117.5%" width="129.2%" x="-14.6%" y="-6.2%"><feOffset dy=".5" in="SourceAlpha" result="shadowOffsetOuter1"/><feGaussianBlur in="shadowOffsetOuter1" result="shadowBlurOuter1" stdDeviation=".5"/><feColorMatrix in="shadowBlurOuter1" values="0 0 0 0 0   0 0 0 0 0   0 0 0 0 0  0 0 0 0.204257246 0"/></filter></defs><g fill="none" fill-rule="evenodd"><use fill="#000" filter="url(#c)" xlink:href="#b"/><use fill="#01aef0" xlink:href="#b"/><use fill="url(#a)" xlink:href="#b"/><circle cx="16" cy="15" r="14.5" stroke="#000" stroke-opacity=".097"/><use fill="#000" filter="url(#e)" xlink:href="#d"/><use fill="#fff" xlink:href="#d"/></g></svg>

<svg xmlns="http://www.w3.org/2000/svg" xmlns:xlink="http://www.w3.org/1999/xlink" width="32" height="32" viewBox="0 0 32 32">
  <defs>
    <linearGradient id="start-c" x1="50%" x2="50%" y1="0%" y2="100%">
      <stop offset="0%" stop-color="#FFF" stop-opacity=".5"/>
      <stop offset="100%" stop-opacity=".5"/>
    </linearGradient>
    <circle id="start-b" cx="16" cy="15" r="15"/>
    <filter id="start-a" width="111.7%" height="111.7%" x="-5.8%" y="-4.2%" filterUnits="objectBoundingBox">
      <feOffset dy=".5" in="SourceAlpha" result="shadowOffsetOuter1"/>
      <feGaussianBlur in="shadowOffsetOuter1" result="shadowBlurOuter1" stdDeviation=".5"/>
      <feComposite in="shadowBlurOuter1" in2="SourceAlpha" operator="out" result="shadowBlurOuter1"/>
      <feColorMatrix in="shadowBlurOuter1" values="0 0 0 0 0   0 0 0 0 0   0 0 0 0 0  0 0 0 0.199473505 0"/>
    </filter>
    <path id="start-e" d="M21.068724,17.8905721 C21.0556134,19.9638654 19.8576132,21.7291711 17.9472208,22.4551527 C17.4993241,22.6254409 17.0334556,22.7495998 16.5691339,22.8661088 C16.2916014,22.9357234 16.1405348,23.0725048 16.1185856,23.3765144 C16.0910386,23.7575591 16.0518541,24.1385273 15.9983068,24.5165885 C15.9352581,24.9622754 15.7823501,25.0637139 15.3716492,24.9658709 C14.6660333,24.7978777 14.5897267,24.6843522 14.6842998,23.9432237 C14.6924019,23.880035 14.7012405,23.8169993 14.7084587,23.7536576 C14.7776945,23.1459444 14.691739,23.0590408 14.1114104,23.0880342 C13.8497875,23.1011156 13.7407043,23.229635 13.7164718,23.4862148 C13.6817066,23.8538721 13.6467204,24.2226004 13.5866178,24.5864327 C13.5253368,24.9580679 13.3702191,25.050097 13.012108,24.9724499 C12.2483783,24.8069811 12.1911483,24.722908 12.2924977,23.9140773 C12.418227,22.911014 12.4152808,22.921724 11.4893625,22.6430358 C11.0785143,22.5194124 10.6809241,22.3470587 10.280314,22.1884749 C10.0362946,22.0917794 9.95615788,21.9104752 10.0221529,21.639131 C10.1063406,21.2935056 10.1639389,20.9410718 10.2364892,20.5923099 C10.3602298,19.9973722 10.6484422,19.8169096 11.1984985,20.0333271 C12.171777,20.4162843 13.1723079,20.6519797 14.2130545,20.677148 C15.1517887,20.6998684 16.0811688,20.6382097 16.9379986,20.1771464 C17.50448,19.8722953 17.920484,19.4247724 18.1290016,18.7843174 C18.4389423,17.8321264 18.1606733,17.061928 17.2682681,16.6791238 C16.5338531,16.3640983 15.744786,16.1881491 15.003963,15.8868936 C14.3458546,15.6192978 13.6615251,15.3506311 13.0931287,14.930189 C11.8168331,13.9861835 11.5935844,12.5890706 11.8746523,11.0987046 C12.1916639,9.41754846 13.2207729,8.32758158 14.7479378,7.74985629 C15.1545876,7.59609202 15.3394619,7.38204602 15.345649,6.92488417 C15.3524252,6.4299315 15.4311625,5.93528482 15.4910441,5.44216814 C15.5370786,5.06334192 15.6845361,4.95670142 16.0390381,5.01484115 C16.791425,5.13815857 16.8806949,5.25680951 16.8071135,6.03810034 C16.7784617,6.34256891 16.7528297,6.64749647 16.7174752,6.95112355 C16.6878659,7.20594385 16.7682973,7.3234473 17.0349287,7.33132676 C17.6438354,7.34930418 17.6700567,7.33828823 17.7417967,6.70846669 C17.7879048,6.30347759 17.8223018,5.896882 17.8768065,5.4931934 C17.9372037,5.044982 18.0823779,4.94254899 18.4945519,5.02723409 C19.1895614,5.16998242 19.2671202,5.27585792 19.1993575,5.99962102 C19.1696745,6.31678853 19.1536177,6.63693952 19.098892,6.94951705 C19.0356959,7.31074836 19.1460312,7.47698208 19.5039214,7.55998419 C20.1853047,7.71803244 20.858586,7.918385 21.5280372,8.12608152 C22.0309543,8.28206429 22.0507675,8.33905652 21.9544266,8.86231406 C21.896902,9.17535059 21.8397456,9.48899912 21.7663115,9.79821067 C21.6282082,10.3796844 21.338228,10.5531856 20.7837524,10.366603 C19.8358113,10.0475995 18.88404,9.75797186 17.8785743,9.71543806 C16.9986904,9.67818273 16.1305914,9.69080517 15.3669353,10.2436681 C14.2914235,11.0223579 14.2849419,12.6040645 15.4287319,13.2696114 C16.1574018,13.6936489 16.9978065,13.9100663 17.7872419,14.2221084 C18.2682097,14.4122865 18.7620672,14.5756132 19.2244739,14.8062596 C20.4618796,15.4235352 21.0830131,16.4572749 21.068724,17.8905721"/>
    <filter id="start-d" width="129.2%" height="117.5%" x="-14.6%" y="-6.2%" filterUnits="objectBoundingBox">
      <feOffset dy=".5" in="SourceAlpha" result="shadowOffsetOuter1"/>
      <feGaussianBlur in="shadowOffsetOuter1" result="shadowBlurOuter1" stdDeviation=".5"/>
      <feColorMatrix in="shadowBlurOuter1" values="0 0 0 0 0   0 0 0 0 0   0 0 0 0 0  0 0 0 0.204257246 0"/>
    </filter>
  </defs>
  <g fill="none" fill-rule="evenodd">
    <use fill="#000" filter="url(#start-a)" xlink:href="#start-b"/>
    <use fill="#01AEF0" xlink:href="#start-b"/>
    <use fill="url(#start-c)" style="mix-blend-mode:soft-light" xlink:href="#start-b"/>
    <circle cx="16" cy="15" r="14.5" stroke="#000" stroke-opacity=".097"/>
    <g>
      <use fill="#000" filter="url(#start-d)" xlink:href="#start-e"/>
      <use fill="#FFF" xlink:href="#start-e"/>
    </g>
  </g>
</svg>
